;FLAVOR:Marlin
;TIME:3314
;Filament used: 1.41983m
;Layer height: 0.16




;POSTPROCESSED
;ChangeAtZ instances: 1
;Generated with Cura_SteamEngine 4.0.0
M140 S85
M105
M190 S85
M104 S240
M105
M109 S240
M82 ;absolute extrusion mode
; Ender 3 Custom Start G-code
G28 ; Home all axes
G92 E0 ; Reset Extruder
G1 Z2.0 F3000 ; Move Z Axis up little to prevent scratching of Heat Bed
G1 X0.1 Y20 Z0.3 F5000.0 ; Move to start position
G1 X0.1 Y200.0 Z0.3 F1500.0 E15 ; Draw the first line
G1 X0.4 Y200.0 Z0.3 F5000.0 ; Move to side a little
G1 X0.4 Y20 Z0.3 F1500.0 E30 ; Draw the second line
G92 E0 ; Reset Extruder
G1 Z2.0 F3000 ; Move Z Axis up little to prevent scratching of Heat Bed
; End of custom start GCode
G92 E0
G1 F1500 E-6
;LAYER_COUNT:185




;LAYER:0
M107
M204 S5000
M205 X30 Y30
G0 F3600 X90.503 Y105.517 Z0.2
M204 S500
M205 X20 Y20
;TYPE:SKIRT
G1 F3000 E0
G1 F900 X91.085 Y105.102 E0.02377
G1 X91.71 Y104.753 E0.04758
G1 X92.37 Y104.477 E0.07138
G1 X93.056 Y104.276 E0.09515
G1 X93.761 Y104.153 E0.11896
G1 X94.509 Y104.109 E0.14388
G1 X140.491 Y104.11 E1.67324
G1 X141.205 Y104.15 E1.69703
G1 X141.911 Y104.269 E1.72084
G1 X142.598 Y104.467 E1.74462
G1 X143.259 Y104.74 E1.76841
G1 X143.886 Y105.085 E1.79221
G1 X144.47 Y105.497 E1.81598
G1 X145.004 Y105.973 E1.83978
G1 X145.483 Y106.505 E1.86358
G1 X145.898 Y107.087 E1.88736
G1 X146.247 Y107.711 E1.91114
G1 X146.523 Y108.371 E1.93493
G1 X146.724 Y109.057 E1.95871
G1 X146.847 Y109.762 E1.98251
G1 X146.891 Y110.51 E2.00743
G1 X146.891 Y124.491 E2.47244
G1 X146.851 Y125.205 E2.49623
G1 X146.732 Y125.91 E2.52001
G1 X146.534 Y126.598 E2.54382
G1 X146.261 Y127.259 E2.56761
G1 X145.917 Y127.886 E2.59139
G1 X145.504 Y128.47 E2.61518
G1 X145.029 Y129.004 E2.63895
G1 X144.497 Y129.483 E2.66276
G1 X143.915 Y129.898 E2.68654
G1 X143.29 Y130.247 E2.71035
G1 X142.63 Y130.523 E2.73414
G1 X141.944 Y130.724 E2.75792
G1 X141.239 Y130.847 E2.78172
G1 X140.491 Y130.891 E2.80664
G1 X94.509 Y130.891 E4.33601
G1 X93.795 Y130.851 E4.35979
G1 X93.09 Y130.732 E4.38357
G1 X92.402 Y130.534 E4.40738
G1 X91.741 Y130.261 E4.43117
G1 X91.114 Y129.917 E4.45496
G1 X90.53 Y129.504 E4.47875
G1 X89.996 Y129.029 E4.50252
G1 X89.517 Y128.497 E4.52633
G1 X89.102 Y127.915 E4.5501
G1 X88.753 Y127.29 E4.57391
G1 X88.477 Y126.63 E4.59771
G1 X88.276 Y125.944 E4.62148
G1 X88.153 Y125.239 E4.64528
G1 X88.109 Y124.491 E4.67021
G1 X88.109 Y110.509 E5.13525
G1 X88.149 Y109.795 E5.15903
G1 X88.268 Y109.09 E5.18281
G1 X88.466 Y108.402 E5.20663
G1 X88.739 Y107.741 E5.23041
G1 X89.083 Y107.114 E5.2542
G1 X89.496 Y106.53 E5.27799
G1 X89.971 Y105.996 E5.30176
G1 X90.503 Y105.517 E5.32557
M204 S5000
M205 X30 Y30
G0 F3600 X90.893 Y105.721
M204 S500
M205 X20 Y20
G1 F900 X91.468 Y105.336 E5.34858
G1 X92.085 Y105.021 E5.37163
G1 X92.733 Y104.778 E5.39464
G1 X93.406 Y104.611 E5.41771
G1 X94.092 Y104.523 E5.44071
G1 X94.509 Y104.509 E5.45459
G1 X140.491 Y104.51 E6.98396
G1 X141.183 Y104.55 E7.00701
G1 X141.865 Y104.669 E7.03004
G1 X142.529 Y104.867 E7.05308
G1 X143.165 Y105.139 E7.07609
G1 X143.766 Y105.483 E7.09912
G1 X144.324 Y105.894 E7.12217
G1 X144.83 Y106.366 E7.14519
G1 X145.279 Y106.894 E7.16824
G1 X145.664 Y107.47 E7.19128
G1 X145.979 Y108.086 E7.21429
G1 X146.222 Y108.734 E7.23731
G1 X146.389 Y109.407 E7.26037
G1 X146.477 Y110.094 E7.28341
G1 X146.491 Y110.51 E7.29725
G1 X146.491 Y124.491 E7.76226
G1 X146.451 Y125.182 E7.78529
G1 X146.332 Y125.865 E7.80834
G1 X146.134 Y126.528 E7.83136
G1 X145.862 Y127.165 E7.8544
G1 X145.518 Y127.766 E7.87743
G1 X145.107 Y128.324 E7.90048
G1 X144.635 Y128.83 E7.92349
G1 X144.107 Y129.279 E7.94655
G1 X143.532 Y129.664 E7.96956
G1 X142.915 Y129.979 E7.9926
G1 X142.267 Y130.222 E8.01562
G1 X141.594 Y130.389 E8.03868
G1 X140.908 Y130.477 E8.06169
G1 X140.491 Y130.491 E8.07556
G1 X94.509 Y130.491 E9.60493
G1 X93.818 Y130.451 E9.62795
G1 X93.135 Y130.332 E9.65101
G1 X92.472 Y130.134 E9.67403
G1 X91.835 Y129.862 E9.69706
G1 X91.234 Y129.518 E9.7201
G1 X90.676 Y129.107 E9.74315
G1 X90.17 Y128.635 E9.76616
G1 X89.721 Y128.107 E9.78921
G1 X89.336 Y127.532 E9.81223
G1 X89.021 Y126.915 E9.83527
G1 X88.778 Y126.267 E9.85829
G1 X88.611 Y125.594 E9.88135
G1 X88.523 Y124.908 E9.90435
G1 X88.509 Y124.491 E9.91823
G1 X88.509 Y110.509 E10.38328
G1 X88.549 Y109.818 E10.4063
G1 X88.668 Y109.135 E10.42936
G1 X88.866 Y108.472 E10.45237
G1 X89.138 Y107.835 E10.47541
G1 X89.482 Y107.234 E10.49844
G1 X89.893 Y106.676 E10.52149
G1 X90.365 Y106.17 E10.5445
G1 X90.893 Y105.721 E10.56756
M204 S5000
M205 X30 Y30
G0 F3600 X90.758 Y106.351
M204 S500
M205 X20 Y20
G1 F900 X91.28 Y105.933 E10.5898
G1 X91.849 Y105.581 E10.61205
G1 X92.456 Y105.299 E10.63431
G1 X93.092 Y105.091 E10.65657
G1 X93.748 Y104.961 E10.67881
G1 X94.509 Y104.909 E10.70418
G1 X140.491 Y104.91 E12.23355
G1 X141.159 Y104.95 E12.25581
G1 X141.817 Y105.069 E12.27805
G1 X142.457 Y105.266 E12.30032
G1 X143.068 Y105.538 E12.32256
G1 X143.642 Y105.881 E12.3448
G1 X144.172 Y106.29 E12.36707
G1 X144.649 Y106.759 E12.38932
G1 X145.067 Y107.282 E12.41159
G1 X145.419 Y107.85 E12.43381
G1 X145.701 Y108.457 E12.45608
G1 X145.909 Y109.093 E12.47833
G1 X146.039 Y109.749 E12.50057
G1 X146.091 Y110.51 E12.52594
G1 X146.091 Y124.491 E12.99095
G1 X146.051 Y125.159 E13.01321
G1 X145.932 Y125.817 E13.03545
G1 X145.735 Y126.457 E13.05772
G1 X145.463 Y127.068 E13.07997
G1 X145.12 Y127.642 E13.10221
G1 X144.711 Y128.172 E13.12448
G1 X144.242 Y128.649 E13.14672
G1 X143.72 Y129.067 E13.16897
G1 X143.151 Y129.419 E13.19122
G1 X142.544 Y129.701 E13.21348
G1 X141.908 Y129.909 E13.23574
G1 X141.252 Y130.039 E13.25798
G1 X140.491 Y130.091 E13.28335
G1 X94.509 Y130.091 E14.81272
G1 X93.841 Y130.051 E14.83498
G1 X93.183 Y129.932 E14.85722
G1 X92.543 Y129.735 E14.87949
G1 X91.932 Y129.463 E14.90173
G1 X91.358 Y129.12 E14.92397
G1 X90.828 Y128.711 E14.94624
G1 X90.351 Y128.242 E14.96849
G1 X89.933 Y127.72 E14.99073
G1 X89.581 Y127.151 E15.01298
G1 X89.299 Y126.544 E15.03525
G1 X89.091 Y125.908 E15.0575
G1 X88.961 Y125.252 E15.07974
G1 X88.909 Y124.491 E15.10511
G1 X88.909 Y110.509 E15.57016
G1 X88.949 Y109.841 E15.59242
G1 X89.068 Y109.183 E15.61466
G1 X89.265 Y108.543 E15.63693
G1 X89.537 Y107.932 E15.65917
G1 X89.88 Y107.358 E15.68141
G1 X90.289 Y106.828 E15.70368
G1 X90.758 Y106.351 E15.72593
M204 S5000
M205 X30 Y30
G0 F3600 X91.149 Y106.54
M204 S500
M205 X20 Y20
G1 F900 X91.666 Y106.155 E15.74737
G1 X92.227 Y105.836 E15.76883
G1 X92.823 Y105.59 E15.79028
G1 X93.444 Y105.419 E15.8117
G1 X94.082 Y105.327 E15.83314
G1 X94.509 Y105.309 E15.84735
G1 X140.491 Y105.31 E17.37672
G1 X141.135 Y105.35 E17.39818
G1 X141.768 Y105.469 E17.41961
G1 X142.382 Y105.666 E17.44105
G1 X142.967 Y105.937 E17.4625
G1 X143.514 Y106.279 E17.48395
G1 X144.014 Y106.685 E17.50538
G1 X144.46 Y107.151 E17.52683
G1 X144.845 Y107.668 E17.54827
G1 X145.164 Y108.228 E17.5697
G1 X145.41 Y108.824 E17.59115
G1 X145.581 Y109.445 E17.61257
G1 X145.673 Y110.083 E17.63401
G1 X145.691 Y110.51 E17.64823
G1 X145.691 Y124.491 E18.11324
G1 X145.651 Y125.134 E18.13466
G1 X145.532 Y125.768 E18.15612
G1 X145.335 Y126.382 E18.17757
G1 X145.064 Y126.967 E18.19901
G1 X144.722 Y127.514 E18.22047
G1 X144.316 Y128.014 E18.24189
G1 X143.851 Y128.46 E18.26332
G1 X143.334 Y128.845 E18.28476
G1 X142.773 Y129.164 E18.30622
G1 X142.177 Y129.41 E18.32767
G1 X141.556 Y129.581 E18.34909
G1 X140.918 Y129.673 E18.37053
G1 X140.491 Y129.691 E18.38475
G1 X94.509 Y129.691 E19.91411
G1 X93.866 Y129.651 E19.93554
G1 X93.232 Y129.532 E19.957
G1 X92.618 Y129.335 E19.97844
G1 X92.033 Y129.064 E19.99989
G1 X91.486 Y128.722 E20.02134
G1 X90.986 Y128.316 E20.04277
G1 X90.54 Y127.851 E20.0642
G1 X90.155 Y127.334 E20.08564
G1 X89.836 Y126.773 E20.1071
G1 X89.59 Y126.177 E20.12854
G1 X89.419 Y125.556 E20.14997
G1 X89.327 Y124.918 E20.17141
G1 X89.309 Y124.491 E20.18562
G1 X89.309 Y110.509 E20.65067
G1 X89.349 Y109.866 E20.67209
G1 X89.468 Y109.232 E20.69355
G1 X89.665 Y108.618 E20.715
G1 X89.936 Y108.033 E20.73644
G1 X90.278 Y107.486 E20.7579
G1 X90.684 Y106.986 E20.77932
G1 X91.149 Y106.54 E20.80075
M204 S5000
M205 X30 Y30
G1 F1500 E14.80075
;MESH:PETGTempTower-noPoint.stl
G0 F3600 X141.153 Y109.847
G0 X141.153 Y125.153
G0 X139.9 Y125.165
G0 X139.9 Y123.9
M204 S500
M205 X20 Y20
;TYPE:WALL-INNER
G1 F3000 E20.80075
G1 F900 X95.1 Y123.9 E22.2908
G1 X95.1 Y111.1 E22.71653
G1 X139.9 Y111.1 E24.20659
G1 X139.9 Y123.9 E24.63232
M204 S5000
M205 X30 Y30
G0 F3600 X140.3 Y124.3
M204 S500
M205 X20 Y20
;TYPE:WALL-OUTER
G1 F900 X94.7 Y124.3 E26.14898
G1 X94.7 Y110.7 E26.60132
G1 X140.3 Y110.7 E28.11798
G1 X140.3 Y124.3 E28.57032
M204 S5000
M205 X30 Y30
G0 F3600 X139.46 Y123.46
M204 S500
M205 X20 Y20
;TYPE:SKIN
G1 F900 X95.54 Y123.46 E30.3963
G1 X95.54 Y111.54 E30.89187
G1 X139.46 Y111.54 E32.71785
G1 X139.46 Y123.46 E33.21343
M204 S5000
M205 X30 Y30
G1 F1500 E27.21343
G0 F3600 X141.165 Y123.46
G0 X141.165 Y112.362
G0 X139.232 Y112.362
M204 S500
M205 X20 Y20
G1 F3000 E33.21343
G1 F900 X138.636 Y111.766 E33.24847
M204 S5000
M205 X30 Y30
G0 F3600 X137.929 Y111.766
M204 S500
M205 X20 Y20
G1 F900 X139.232 Y113.069 E33.32508
M204 S5000
M205 X30 Y30
G0 F3600 X139.232 Y113.776
M204 S500
M205 X20 Y20
G1 F900 X137.222 Y111.766 E33.44326
M204 S5000
M205 X30 Y30
G0 F3600 X136.515 Y111.766
M204 S500
M205 X20 Y20
G1 F900 X139.232 Y114.483 E33.60301
M204 S5000
M205 X30 Y30
G0 F3600 X139.232 Y115.19
M204 S500
M205 X20 Y20
G1 F900 X135.808 Y111.766 E33.80433
M204 S5000
M205 X30 Y30
G0 F3600 X135.101 Y111.766
M204 S500
M205 X20 Y20
G1 F900 X139.232 Y115.897 E34.04722
M204 S5000
M205 X30 Y30
G0 F3600 X139.232 Y116.604
M204 S500
M205 X20 Y20
G1 F900 X134.394 Y111.766 E34.33167
M204 S5000
M205 X30 Y30
G0 F3600 X133.687 Y111.766
M204 S500
M205 X20 Y20
G1 F900 X139.232 Y117.311 E34.6577
M204 S5000
M205 X30 Y30
G0 F3600 X139.232 Y118.018
M204 S500
M205 X20 Y20
G1 F900 X132.979 Y111.766 E35.02532
M204 S5000
M205 X30 Y30
G0 F3600 X132.272 Y111.766
M204 S500
M205 X20 Y20
G1 F900 X139.232 Y118.726 E35.43454
M204 S5000
M205 X30 Y30
G0 F3600 X139.232 Y119.433
M204 S500
M205 X20 Y20
G1 F900 X131.565 Y111.766 E35.88533
M204 S5000
M205 X30 Y30
G0 F3600 X130.858 Y111.766
M204 S500
M205 X20 Y20
G1 F900 X139.232 Y120.14 E36.37769
M204 S5000
M205 X30 Y30
G0 F3600 X139.232 Y120.847
M204 S500
M205 X20 Y20
G1 F900 X130.151 Y111.766 E36.91162
M204 S5000
M205 X30 Y30
G0 F3600 X129.444 Y111.766
M204 S500
M205 X20 Y20
G1 F900 X139.232 Y121.554 E37.48712
M204 S5000
M205 X30 Y30
G0 F3600 X139.232 Y122.261
M204 S500
M205 X20 Y20
G1 F900 X128.737 Y111.766 E38.10418
M204 S5000
M205 X30 Y30
G0 F3600 X128.03 Y111.766
M204 S500
M205 X20 Y20
G1 F900 X139.232 Y122.968 E38.76282
M204 S5000
M205 X30 Y30
G0 F3600 X138.788 Y123.232
M204 S500
M205 X20 Y20
G1 F900 X127.323 Y111.766 E39.43695
M204 S5000
M205 X30 Y30
G0 F3600 X126.615 Y111.766
M204 S500
M205 X20 Y20
G1 F900 X138.081 Y123.232 E40.1111
M204 S5000
M205 X30 Y30
G0 F3600 X137.374 Y123.232
M204 S500
M205 X20 Y20
G1 F900 X125.908 Y111.766 E40.78526
M204 S5000
M205 X30 Y30
G0 F3600 X125.201 Y111.766
M204 S500
M205 X20 Y20
G1 F900 X136.667 Y123.232 E41.45942
M204 S5000
M205 X30 Y30
G0 F3600 X135.96 Y123.232
M204 S500
M205 X20 Y20
G1 F900 X124.494 Y111.766 E42.13357
M204 S5000
M205 X30 Y30
G0 F3600 X123.787 Y111.766
M204 S500
M205 X20 Y20
G1 F900 X135.253 Y123.232 E42.80773
M204 S5000
M205 X30 Y30
G0 F3600 X134.546 Y123.232
M204 S500
M205 X20 Y20
G1 F900 X123.08 Y111.766 E43.48189
M204 S5000
M205 X30 Y30
G0 F3600 X122.373 Y111.766
M204 S500
M205 X20 Y20
G1 F900 X133.839 Y123.232 E44.15604
M204 S5000
M205 X30 Y30
G0 F3600 X133.131 Y123.232
M204 S500
M205 X20 Y20
G1 F900 X121.666 Y111.766 E44.83017
M204 S5000
M205 X30 Y30
G0 F3600 X120.959 Y111.766
M204 S500
M205 X20 Y20
G1 F900 X132.424 Y123.232 E45.5043
M204 S5000
M205 X30 Y30
G0 F3600 X131.717 Y123.232
M204 S500
M205 X20 Y20
G1 F900 X120.251 Y111.766 E46.17846
M204 S5000
M205 X30 Y30
G0 F3600 X119.544 Y111.766
M204 S500
M205 X20 Y20
G1 F900 X131.01 Y123.232 E46.85261
M204 S5000
M205 X30 Y30
G0 F3600 X130.303 Y123.232
M204 S500
M205 X20 Y20
G1 F900 X118.837 Y111.766 E47.52677
M204 S5000
M205 X30 Y30
G0 F3600 X118.13 Y111.766
M204 S500
M205 X20 Y20
G1 F900 X129.596 Y123.232 E48.20093
M204 S5000
M205 X30 Y30
G0 F3600 X128.889 Y123.232
M204 S500
M205 X20 Y20
G1 F900 X117.423 Y111.766 E48.87508
M204 S5000
M205 X30 Y30
G0 F3600 X116.716 Y111.766
M204 S500
M205 X20 Y20
G1 F900 X128.182 Y123.232 E49.54924
M204 S5000
M205 X30 Y30
G0 F3600 X127.475 Y123.232
M204 S500
M205 X20 Y20
G1 F900 X116.009 Y111.766 E50.2234
M204 S5000
M205 X30 Y30
G0 F3600 X115.302 Y111.766
M204 S500
M205 X20 Y20
G1 F900 X126.767 Y123.232 E50.89752
M204 S5000
M205 X30 Y30
G0 F3600 X126.06 Y123.232
M204 S500
M205 X20 Y20
G1 F900 X114.595 Y111.766 E51.57165
M204 S5000
M205 X30 Y30
G0 F3600 X113.888 Y111.766
M204 S500
M205 X20 Y20
G1 F900 X125.353 Y123.232 E52.24578
M204 S5000
M205 X30 Y30
G0 F3600 X124.646 Y123.232
M204 S500
M205 X20 Y20
G1 F900 X113.18 Y111.766 E52.91994
M204 S5000
M205 X30 Y30
G0 F3600 X112.473 Y111.766
M204 S500
M205 X20 Y20
G1 F900 X123.939 Y123.232 E53.59409
M204 S5000
M205 X30 Y30
G0 F3600 X123.232 Y123.232
M204 S500
M205 X20 Y20
G1 F900 X111.766 Y111.766 E54.26825
M204 S5000
M205 X30 Y30
G0 F3600 X111.059 Y111.766
M204 S500
M205 X20 Y20
G1 F900 X122.525 Y123.232 E54.94241
M204 S5000
M205 X30 Y30
G0 F3600 X121.818 Y123.232
M204 S500
M205 X20 Y20
G1 F900 X110.352 Y111.766 E55.61656
M204 S5000
M205 X30 Y30
G0 F3600 X109.645 Y111.766
M204 S500
M205 X20 Y20
G1 F900 X121.111 Y123.232 E56.29072
M204 S5000
M205 X30 Y30
G0 F3600 X120.404 Y123.232
M204 S500
M205 X20 Y20
G1 F900 X108.938 Y111.766 E56.96488
M204 S5000
M205 X30 Y30
G0 F3600 X108.231 Y111.766
M204 S500
M205 X20 Y20
G1 F900 X119.696 Y123.232 E57.639
M204 S5000
M205 X30 Y30
G0 F3600 X118.989 Y123.232
M204 S500
M205 X20 Y20
G1 F900 X107.524 Y111.766 E58.31313
M204 S5000
M205 X30 Y30
G0 F3600 X106.816 Y111.766
M204 S500
M205 X20 Y20
G1 F900 X118.282 Y123.232 E58.98729
M204 S5000
M205 X30 Y30
G0 F3600 X117.575 Y123.232
M204 S500
M205 X20 Y20
G1 F900 X106.109 Y111.766 E59.66145
M204 S5000
M205 X30 Y30
G0 F3600 X105.402 Y111.766
M204 S500
M205 X20 Y20
G1 F900 X116.868 Y123.232 E60.3356
M204 S5000
M205 X30 Y30
G0 F3600 X116.161 Y123.232
M204 S500
M205 X20 Y20
G1 F900 X104.695 Y111.766 E61.00976
M204 S5000
M205 X30 Y30
G0 F3600 X103.988 Y111.766
M204 S500
M205 X20 Y20
G1 F900 X115.454 Y123.232 E61.68392
M204 S5000
M205 X30 Y30
G0 F3600 X114.747 Y123.232
M204 S500
M205 X20 Y20
G1 F900 X103.281 Y111.766 E62.35807
M204 S5000
M205 X30 Y30
G0 F3600 X102.574 Y111.766
M204 S500
M205 X20 Y20
G1 F900 X114.04 Y123.232 E63.03223
M204 S5000
M205 X30 Y30
G0 F3600 X113.332 Y123.232
M204 S500
M205 X20 Y20
G1 F900 X101.867 Y111.766 E63.70636
M204 S5000
M205 X30 Y30
G0 F3600 X101.16 Y111.766
M204 S500
M205 X20 Y20
G1 F900 X112.625 Y123.232 E64.38048
M204 S5000
M205 X30 Y30
G0 F3600 X111.918 Y123.232
M204 S500
M205 X20 Y20
G1 F900 X100.453 Y111.766 E65.05461
M204 S5000
M205 X30 Y30
G0 F3600 X99.745 Y111.766
M204 S500
M205 X20 Y20
G1 F900 X111.211 Y123.232 E65.72877
M204 S5000
M205 X30 Y30
G0 F3600 X110.504 Y123.232
M204 S500
M205 X20 Y20
G1 F900 X99.038 Y111.766 E66.40293
M204 S5000
M205 X30 Y30
G0 F3600 X98.331 Y111.766
M204 S500
M205 X20 Y20
G1 F900 X109.797 Y123.232 E67.07708
M204 S5000
M205 X30 Y30
G0 F3600 X109.09 Y123.232
M204 S500
M205 X20 Y20
G1 F900 X97.624 Y111.766 E67.75124
M204 S5000
M205 X30 Y30
G0 F3600 X96.917 Y111.766
M204 S500
M205 X20 Y20
G1 F900 X108.383 Y123.232 E68.4254
M204 S5000
M205 X30 Y30
G0 F3600 X107.676 Y123.232
M204 S500
M205 X20 Y20
G1 F900 X96.21 Y111.766 E69.09955
M204 S5000
M205 X30 Y30
G0 F3600 X95.767 Y112.03
M204 S500
M205 X20 Y20
G1 F900 X106.968 Y123.232 E69.75816
M204 S5000
M205 X30 Y30
G0 F3600 X106.261 Y123.232
M204 S500
M205 X20 Y20
G1 F900 X95.767 Y112.737 E70.3752
M204 S5000
M205 X30 Y30
G0 F3600 X95.767 Y113.444
M204 S500
M205 X20 Y20
G1 F900 X105.554 Y123.232 E70.95066
M204 S5000
M205 X30 Y30
G0 F3600 X104.847 Y123.232
M204 S500
M205 X20 Y20
G1 F900 X95.767 Y114.151 E71.48456
M204 S5000
M205 X30 Y30
G0 F3600 X95.767 Y114.858
M204 S500
M205 X20 Y20
